site/_assets/attention.svg

<?xml version="1.0" encoding="UTF-8" standalone="no"?><!DOCTYPE svg PUBLIC "-//W3C//DTD SVG 1.1//EN" "http://www.w3.org/Graphics/SVG/1.1/DTD/svg11.dtd"><svg width="100%" height="100%" viewBox="0 0 1344 340" version="1.1" xmlns="http://www.w3.org/2000/svg" xmlns:xlink="http://www.w3.org/1999/xlink" xml:space="preserve" xmlns:serif="http://www.serif.com/" style="fill-rule:evenodd;clip-rule:evenodd;stroke-linejoin:round;stroke-miterlimit:2;"><g><rect x="145" y="285" width="1054" height="55" style="fill:#ddd;"/><path d="M0,143l145,142l0,55c-48.081,-48.081 -96.919,-95.919 -145,-144l0,-53Z" style="fill:#c4c4c4;fill-rule:nonzero;"/><path d="M1344,142l-145,143l0,55c48.26,-48.605 96.51,-97.209 144.77,-145.814l0.23,-52.186Z" style="fill:#c4c4c4;fill-rule:nonzero;"/><path d="M144.766,0l1053.964,0l145.27,142l-145,143l-1054,0c-48.034,-47.591 -96.966,-94.409 -145,-142l144.766,-143Z" style="fill:#ff4f4f;fill-rule:nonzero;"/><path d="M343.483,198l-27.647,0l62.383,-122.025l33.247,0l21.807,122.025l-27.646,0l-14.836,-94.14l-0.953,0l-46.355,94.14Zm6.315,-47.964l65.303,0l-3.456,20.139l-65.303,0l3.456,-20.139Zm149.172,-43.555l-3.158,19.067l-55.174,0l3.218,-19.067l55.114,0Zm-39.027,-21.926l25.382,0l-14.18,85.322c-0.398,2.344 -0.338,4.171 0.178,5.482c0.517,1.271 1.371,2.164 2.562,2.681c1.232,0.516 2.701,0.774 4.409,0.774c1.192,0 2.404,-0.099 3.635,-0.297c1.231,-0.239 2.165,-0.418 2.8,-0.537l0.954,18.888c-1.43,0.437 -3.357,0.914 -5.78,1.43c-2.383,0.516 -5.203,0.834 -8.461,0.953c-6.196,0.239 -11.439,-0.576 -15.729,-2.443c-4.29,-1.906 -7.369,-4.826 -9.236,-8.758c-1.867,-3.933 -2.264,-8.878 -1.191,-14.836l14.657,-88.659Zm97.528,21.926l-3.158,19.067l-55.173,0l3.217,-19.067l55.114,0Zm-39.026,-21.926l25.382,0l-14.181,85.322c-0.397,2.344 -0.337,4.171 0.179,5.482c0.516,1.271 1.37,2.164 2.562,2.681c1.231,0.516 2.701,0.774 4.409,0.774c1.192,0 2.403,-0.099 3.635,-0.297c1.231,-0.239 2.164,-0.418 2.8,-0.537l0.953,18.888c-1.43,0.437 -3.356,0.914 -5.779,1.43c-2.383,0.516 -5.204,0.834 -8.461,0.953c-6.196,0.239 -11.44,-0.576 -15.73,-2.443c-4.29,-1.906 -7.368,-4.826 -9.235,-8.758c-1.867,-3.933 -2.264,-8.878 -1.192,-14.836l14.658,-88.659Zm74.082,115.232c-9.374,0 -17.14,-1.906 -23.297,-5.719c-6.156,-3.853 -10.486,-9.295 -12.989,-16.326c-2.462,-7.07 -2.879,-15.432 -1.251,-25.084c1.589,-9.414 4.787,-17.676 9.593,-24.787c4.846,-7.11 10.923,-12.651 18.232,-16.623c7.309,-3.972 15.452,-5.958 24.429,-5.958c6.038,0 11.499,0.973 16.385,2.919c4.926,1.907 9.017,4.807 12.274,8.699c3.257,3.853 5.482,8.679 6.673,14.479c1.232,5.799 1.212,12.592 -0.059,20.377l-1.132,6.971l-77.219,0l2.443,-15.73l53.386,0c0.596,-3.654 0.357,-6.891 -0.715,-9.712c-1.073,-2.82 -2.86,-5.024 -5.363,-6.613c-2.502,-1.629 -5.581,-2.443 -9.235,-2.443c-3.734,0 -7.229,0.913 -10.487,2.741c-3.257,1.827 -5.997,4.23 -8.222,7.209c-2.185,2.94 -3.595,6.137 -4.23,9.593l-2.801,15.611c-0.794,4.806 -0.635,8.798 0.477,11.976c1.152,3.177 3.138,5.561 5.958,7.15c2.821,1.549 6.395,2.323 10.725,2.323c2.82,0 5.462,-0.397 7.925,-1.191c2.502,-0.795 4.726,-1.967 6.673,-3.516c1.946,-1.589 3.535,-3.555 4.766,-5.898l23.178,1.549c-2.145,5.64 -5.402,10.566 -9.772,14.776c-4.369,4.171 -9.632,7.428 -15.789,9.772c-6.117,2.304 -12.969,3.455 -20.556,3.455Zm86.58,-54.696l-8.818,52.909l-25.323,0l15.253,-91.519l24.131,0l-2.621,16.147l1.013,0c2.899,-5.362 6.991,-9.593 12.274,-12.691c5.322,-3.098 11.38,-4.647 18.172,-4.647c6.356,0 11.659,1.39 15.909,4.17c4.29,2.781 7.309,6.733 9.056,11.857c1.788,5.124 2.086,11.261 0.894,18.411l-9.772,58.272l-25.382,0l8.997,-53.743c0.914,-5.601 0.199,-9.971 -2.145,-13.109c-2.304,-3.177 -6.017,-4.766 -11.142,-4.766c-3.416,0 -6.554,0.735 -9.414,2.204c-2.86,1.47 -5.263,3.615 -7.209,6.435c-1.907,2.781 -3.198,6.137 -3.873,10.07Zm127.275,-38.61l-3.158,19.067l-55.173,0l3.217,-19.067l55.114,0Zm-39.027,-21.926l25.382,0l-14.18,85.322c-0.397,2.344 -0.338,4.171 0.179,5.482c0.516,1.271 1.37,2.164 2.562,2.681c1.231,0.516 2.701,0.774 4.409,0.774c1.191,0 2.403,-0.099 3.634,-0.297c1.232,-0.239 2.165,-0.418 2.801,-0.537l0.953,18.888c-1.43,0.437 -3.357,0.914 -5.78,1.43c-2.383,0.516 -5.203,0.834 -8.46,0.953c-6.197,0.239 -11.44,-0.576 -15.73,-2.443c-4.29,-1.906 -7.368,-4.826 -9.235,-8.758c-1.867,-3.933 -2.265,-8.878 -1.192,-14.836l14.657,-88.659Zm33.596,113.445l15.254,-91.519l25.382,0l-15.253,91.519l-25.383,0Zm30.566,-103.435c-3.773,0 -6.891,-1.251 -9.354,-3.754c-2.423,-2.542 -3.416,-5.561 -2.979,-9.056c0.437,-3.575 2.145,-6.594 5.124,-9.057c2.979,-2.502 6.355,-3.754 10.129,-3.754c3.773,0 6.852,1.251 9.235,3.754c2.383,2.463 3.376,5.482 2.979,9.057c-0.397,3.496 -2.085,6.514 -5.064,9.056c-2.94,2.502 -6.296,3.754 -10.07,3.754Zm49.907,105.222c-9.334,0 -17.06,-1.986 -23.177,-5.958c-6.118,-4.012 -10.427,-9.573 -12.93,-16.683c-2.463,-7.15 -2.919,-15.471 -1.37,-24.965c1.509,-9.374 4.647,-17.577 9.414,-24.607c4.766,-7.031 10.824,-12.493 18.172,-16.386c7.349,-3.932 15.631,-5.898 24.846,-5.898c9.295,0 17.001,2.006 23.118,6.017c6.117,3.973 10.427,9.534 12.93,16.684c2.502,7.149 2.979,15.471 1.43,24.965c-1.549,9.334 -4.727,17.517 -9.533,24.548c-4.807,7.03 -10.864,12.512 -18.173,16.444c-7.309,3.893 -15.551,5.839 -24.727,5.839Zm2.503,-19.662c4.29,0 8.083,-1.211 11.38,-3.634c3.336,-2.463 6.097,-5.8 8.282,-10.01c2.224,-4.25 3.773,-9.057 4.647,-14.419c0.874,-5.283 0.934,-9.97 0.179,-14.062c-0.755,-4.131 -2.344,-7.388 -4.767,-9.771c-2.383,-2.383 -5.66,-3.575 -9.831,-3.575c-4.29,0 -8.103,1.231 -11.44,3.694c-3.336,2.423 -6.097,5.76 -8.282,10.01c-2.184,4.25 -3.713,9.076 -4.587,14.478c-0.835,5.244 -0.894,9.931 -0.179,14.062c0.715,4.091 2.284,7.329 4.707,9.712c2.423,2.343 5.72,3.515 9.891,3.515Zm86.535,-35.034l-8.818,52.909l-25.323,0l15.253,-91.519l24.131,0l-2.622,16.147l1.013,0c2.9,-5.362 6.991,-9.593 12.274,-12.691c5.323,-3.098 11.381,-4.647 18.173,-4.647c6.357,0 11.657,1.39 15.907,4.17c4.29,2.781 7.31,6.733 9.06,11.857c1.79,5.124 2.08,11.261 0.89,18.411l-9.77,58.272l-25.382,0l8.997,-53.743c0.914,-5.601 0.199,-9.971 -2.145,-13.109c-2.304,-3.177 -6.018,-4.766 -11.142,-4.766c-3.416,0 -6.554,0.735 -9.414,2.204c-2.86,1.47 -5.263,3.615 -7.209,6.435c-1.907,2.781 -3.198,6.137 -3.873,10.07Zm113.808,-69.116l-16.44,85.441l-21.69,0l11.74,-85.441l26.39,0Zm-32.11,123.574c-4.02,0 -7.31,-1.39 -9.89,-4.171c-2.55,-2.78 -3.7,-6.156 -3.46,-10.129c0.28,-3.932 1.93,-7.249 4.94,-9.95c3.06,-2.741 6.58,-4.111 10.55,-4.111c3.81,0 7.03,1.37 9.65,4.111c2.62,2.741 3.78,6.058 3.46,9.95c-0.2,2.622 -1.05,5.025 -2.56,7.21c-1.47,2.145 -3.34,3.873 -5.6,5.184c-2.27,1.271 -4.63,1.906 -7.09,1.906Z" style="fill-rule:nonzero;"/><path d="M337.483,192l-27.647,0l62.383,-122.025l33.247,0l21.807,122.025l-27.646,0l-14.836,-94.14l-0.953,0l-46.355,94.14Zm6.315,-47.964l65.303,0l-3.456,20.139l-65.303,0l3.456,-20.139Zm149.172,-43.555l-3.158,19.067l-55.174,0l3.218,-19.067l55.114,0Zm-39.027,-21.926l25.382,0l-14.18,85.322c-0.398,2.344 -0.338,4.171 0.178,5.482c0.517,1.271 1.371,2.164 2.562,2.681c1.232,0.516 2.701,0.774 4.409,0.774c1.192,0 2.404,-0.099 3.635,-0.297c1.231,-0.239 2.165,-0.418 2.8,-0.537l0.954,18.888c-1.43,0.437 -3.357,0.914 -5.78,1.43c-2.383,0.516 -5.203,0.834 -8.461,0.953c-6.196,0.239 -11.439,-0.576 -15.729,-2.443c-4.29,-1.906 -7.369,-4.826 -9.236,-8.758c-1.867,-3.933 -2.264,-8.878 -1.191,-14.836l14.657,-88.659Zm97.528,21.926l-3.158,19.067l-55.173,0l3.217,-19.067l55.114,0Zm-39.026,-21.926l25.382,0l-14.181,85.322c-0.397,2.344 -0.337,4.171 0.179,5.482c0.516,1.271 1.37,2.164 2.562,2.681c1.231,0.516 2.701,0.774 4.409,0.774c1.192,0 2.403,-0.099 3.635,-0.297c1.231,-0.239 2.164,-0.418 2.8,-0.537l0.953,18.888c-1.43,0.437 -3.356,0.914 -5.779,1.43c-2.383,0.516 -5.204,0.834 -8.461,0.953c-6.196,0.239 -11.44,-0.576 -15.73,-2.443c-4.29,-1.906 -7.368,-4.826 -9.235,-8.758c-1.867,-3.933 -2.264,-8.878 -1.192,-14.836l14.658,-88.659Zm74.082,115.232c-9.374,0 -17.14,-1.906 -23.297,-5.719c-6.156,-3.853 -10.486,-9.295 -12.989,-16.326c-2.462,-7.07 -2.879,-15.432 -1.251,-25.084c1.589,-9.414 4.787,-17.676 9.593,-24.787c4.846,-7.11 10.923,-12.651 18.232,-16.623c7.309,-3.972 15.452,-5.958 24.429,-5.958c6.038,0 11.499,0.973 16.385,2.919c4.926,1.907 9.017,4.807 12.274,8.699c3.257,3.853 5.482,8.679 6.673,14.479c1.232,5.799 1.212,12.592 -0.059,20.377l-1.132,6.971l-77.219,0l2.443,-15.73l53.386,0c0.596,-3.654 0.357,-6.891 -0.715,-9.712c-1.073,-2.82 -2.86,-5.024 -5.363,-6.613c-2.502,-1.629 -5.581,-2.443 -9.235,-2.443c-3.734,0 -7.229,0.913 -10.487,2.741c-3.257,1.827 -5.997,4.23 -8.222,7.209c-2.185,2.94 -3.595,6.137 -4.23,9.593l-2.801,15.611c-0.794,4.806 -0.635,8.798 0.477,11.976c1.152,3.177 3.138,5.561 5.958,7.15c2.821,1.549 6.395,2.323 10.725,2.323c2.82,0 5.462,-0.397 7.925,-1.191c2.502,-0.795 4.726,-1.967 6.673,-3.516c1.946,-1.589 3.535,-3.555 4.766,-5.898l23.178,1.549c-2.145,5.64 -5.402,10.566 -9.772,14.776c-4.369,4.171 -9.632,7.428 -15.789,9.772c-6.117,2.304 -12.969,3.455 -20.556,3.455Zm86.58,-54.696l-8.818,52.909l-25.323,0l15.253,-91.519l24.131,0l-2.621,16.147l1.013,0c2.899,-5.362 6.991,-9.593 12.274,-12.691c5.322,-3.098 11.38,-4.647 18.172,-4.647c6.356,0 11.659,1.39 15.909,4.17c4.29,2.781 7.309,6.733 9.056,11.857c1.788,5.124 2.086,11.261 0.894,18.411l-9.772,58.272l-25.382,0l8.997,-53.743c0.914,-5.601 0.199,-9.971 -2.145,-13.109c-2.304,-3.177 -6.017,-4.766 -11.142,-4.766c-3.416,0 -6.554,0.735 -9.414,2.204c-2.86,1.47 -5.263,3.615 -7.209,6.435c-1.907,2.781 -3.198,6.137 -3.873,10.07Zm127.275,-38.61l-3.158,19.067l-55.173,0l3.217,-19.067l55.114,0Zm-39.027,-21.926l25.382,0l-14.18,85.322c-0.397,2.344 -0.338,4.171 0.179,5.482c0.516,1.271 1.37,2.164 2.562,2.681c1.231,0.516 2.701,0.774 4.409,0.774c1.191,0 2.403,-0.099 3.634,-0.297c1.232,-0.239 2.165,-0.418 2.801,-0.537l0.953,18.888c-1.43,0.437 -3.357,0.914 -5.78,1.43c-2.383,0.516 -5.203,0.834 -8.46,0.953c-6.197,0.239 -11.44,-0.576 -15.73,-2.443c-4.29,-1.906 -7.368,-4.826 -9.235,-8.758c-1.867,-3.933 -2.265,-8.878 -1.192,-14.836l14.657,-88.659Zm33.596,113.445l15.254,-91.519l25.382,0l-15.253,91.519l-25.383,0Zm30.566,-103.435c-3.773,0 -6.891,-1.251 -9.354,-3.754c-2.423,-2.542 -3.416,-5.561 -2.979,-9.056c0.437,-3.575 2.145,-6.594 5.124,-9.057c2.979,-2.502 6.355,-3.754 10.129,-3.754c3.773,0 6.852,1.251 9.235,3.754c2.383,2.463 3.376,5.482 2.979,9.057c-0.397,3.496 -2.085,6.514 -5.064,9.056c-2.94,2.502 -6.296,3.754 -10.07,3.754Zm49.907,105.222c-9.334,0 -17.06,-1.986 -23.177,-5.958c-6.118,-4.012 -10.427,-9.573 -12.93,-16.683c-2.463,-7.15 -2.919,-15.471 -1.37,-24.965c1.509,-9.374 4.647,-17.577 9.414,-24.607c4.766,-7.031 10.824,-12.493 18.172,-16.386c7.349,-3.932 15.631,-5.898 24.846,-5.898c9.295,0 17.001,2.006 23.118,6.017c6.117,3.973 10.427,9.534 12.93,16.684c2.502,7.149 2.979,15.471 1.43,24.965c-1.549,9.334 -4.727,17.517 -9.533,24.548c-4.807,7.03 -10.864,12.512 -18.173,16.444c-7.309,3.893 -15.551,5.839 -24.727,5.839Zm2.503,-19.662c4.29,0 8.083,-1.211 11.38,-3.634c3.336,-2.463 6.097,-5.8 8.282,-10.01c2.224,-4.25 3.773,-9.057 4.647,-14.419c0.874,-5.283 0.934,-9.97 0.179,-14.062c-0.755,-4.131 -2.344,-7.388 -4.767,-9.771c-2.383,-2.383 -5.66,-3.575 -9.831,-3.575c-4.29,0 -8.103,1.231 -11.44,3.694c-3.336,2.423 -6.097,5.76 -8.282,10.01c-2.184,4.25 -3.713,9.076 -4.587,14.478c-0.835,5.244 -0.894,9.931 -0.179,14.062c0.715,4.091 2.284,7.329 4.707,9.712c2.423,2.343 5.72,3.515 9.891,3.515Zm86.535,-35.034l-8.818,52.909l-25.323,0l15.253,-91.519l24.131,0l-2.622,16.147l1.013,0c2.9,-5.362 6.991,-9.593 12.274,-12.691c5.323,-3.098 11.381,-4.647 18.173,-4.647c6.357,0 11.657,1.39 15.907,4.17c4.29,2.781 7.31,6.733 9.06,11.857c1.79,5.124 2.08,11.261 0.89,18.411l-9.77,58.272l-25.382,0l8.997,-53.743c0.914,-5.601 0.199,-9.971 -2.145,-13.109c-2.304,-3.177 -6.018,-4.766 -11.142,-4.766c-3.416,0 -6.554,0.735 -9.414,2.204c-2.86,1.47 -5.263,3.615 -7.209,6.435c-1.907,2.781 -3.198,6.137 -3.873,10.07Zm113.808,-69.116l-16.44,85.441l-21.69,0l11.74,-85.441l26.39,0Zm-32.11,123.574c-4.02,0 -7.31,-1.39 -9.89,-4.171c-2.55,-2.78 -3.7,-6.156 -3.46,-10.129c0.28,-3.932 1.93,-7.249 4.94,-9.95c3.06,-2.741 6.58,-4.111 10.55,-4.111c3.81,0 7.03,1.37 9.65,4.111c2.62,2.741 3.78,6.058 3.46,9.95c-0.2,2.622 -1.05,5.025 -2.56,7.21c-1.47,2.145 -3.34,3.873 -5.6,5.184c-2.27,1.271 -4.63,1.906 -7.09,1.906Z" style="fill:#fff;fill-rule:nonzero;"/></g></svg>

<svg width="1344" height="340" viewBox="0 0 1344 340" fill="none" xmlns="http://www.w3.org/2000/svg">
<g clip-path="url(#clip0_3411_3314)">
<rect x="145" y="285" width="1054" height="55" fill="#DDDDDD"/>
<path d="M0 143L145 285V340C96.9192 291.919 48.0808 244.081 0 196V143Z" fill="#C4C4C4"/>
<path d="M1344 142L1199 285V340C1247.26 291.395 1295.51 242.791 1343.77 194.186L1344 142Z" fill="#C4C4C4"/>
<path d="M144.766 0H1198.73L1344 142L1199 285H145C96.9661 237.409 48.0339 190.591 0 143L144.766 0Z" fill="#FF4F4F"/>
<g filter="url(#filter0_d_3411_3314)">
<path d="M337.483 192H309.836L372.219 69.9751H405.466L427.273 192H399.627L384.791 97.8597H383.838L337.483 192ZM343.798 144.036H409.101L405.645 164.175H340.342L343.798 144.036ZM492.97 100.481L489.812 119.548H434.638L437.856 100.481H492.97ZM453.943 78.555H479.325L465.145 163.877C464.747 166.221 464.807 168.048 465.323 169.359C465.84 170.63 466.694 171.523 467.885 172.04C469.117 172.556 470.586 172.814 472.294 172.814C473.486 172.814 474.698 172.715 475.929 172.517C477.16 172.278 478.094 172.099 478.729 171.98L479.683 190.868C478.253 191.305 476.326 191.782 473.903 192.298C471.52 192.814 468.7 193.132 465.442 193.251C459.246 193.49 454.003 192.675 449.713 190.808C445.423 188.902 442.344 185.982 440.477 182.05C438.61 178.117 438.213 173.172 439.286 167.214L453.943 78.555ZM551.471 100.481L548.313 119.548H493.14L496.357 100.481H551.471ZM512.445 78.555H537.827L523.646 163.877C523.249 166.221 523.309 168.048 523.825 169.359C524.341 170.63 525.195 171.523 526.387 172.04C527.618 172.556 529.088 172.814 530.796 172.814C531.988 172.814 533.199 172.715 534.431 172.517C535.662 172.278 536.595 172.099 537.231 171.98L538.184 190.868C536.754 191.305 534.828 191.782 532.405 192.298C530.022 192.814 527.201 193.132 523.944 193.251C517.748 193.49 512.504 192.675 508.214 190.808C503.924 188.902 500.846 185.982 498.979 182.05C497.112 178.117 496.715 173.172 497.787 167.214L512.445 78.555ZM586.527 193.787C577.153 193.787 569.387 191.881 563.23 188.068C557.074 184.215 552.744 178.773 550.241 171.742C547.779 164.672 547.362 156.31 548.99 146.658C550.579 137.244 553.777 128.982 558.583 121.871C563.429 114.761 569.506 109.22 576.815 105.248C584.124 101.276 592.267 99.2897 601.244 99.2897C607.282 99.2897 612.743 100.263 617.629 102.209C622.555 104.116 626.646 107.016 629.903 110.908C633.16 114.761 635.385 119.587 636.576 125.387C637.808 131.186 637.788 137.979 636.517 145.764L635.385 152.735H558.166L560.609 137.005H613.995C614.591 133.351 614.352 130.114 613.28 127.293C612.207 124.473 610.42 122.269 607.917 120.68C605.415 119.051 602.336 118.237 598.682 118.237C594.948 118.237 591.453 119.15 588.195 120.978C584.938 122.805 582.198 125.208 579.973 128.187C577.788 131.127 576.378 134.324 575.743 137.78L572.942 153.391C572.148 158.197 572.307 162.189 573.419 165.367C574.571 168.544 576.557 170.928 579.377 172.517C582.198 174.066 585.772 174.84 590.102 174.84C592.922 174.84 595.564 174.443 598.027 173.649C600.529 172.854 602.753 171.682 604.7 170.133C606.646 168.544 608.235 166.578 609.466 164.235L632.644 165.784C630.499 171.424 627.242 176.35 622.872 180.56C618.503 184.731 613.24 187.988 607.083 190.332C600.966 192.636 594.114 193.787 586.527 193.787ZM673.107 139.091L664.289 192H638.966L654.219 100.481H678.35L675.729 116.628H676.742C679.641 111.266 683.733 107.035 689.016 103.937C694.338 100.839 700.396 99.2897 707.188 99.2897C713.544 99.2897 718.847 100.68 723.097 103.46C727.387 106.241 730.406 110.193 732.153 115.317C733.941 120.441 734.239 126.578 733.047 133.728L723.275 192H697.893L706.89 138.257C707.804 132.656 707.089 128.286 704.745 125.148C702.441 121.971 698.728 120.382 693.603 120.382C690.187 120.382 687.049 121.117 684.189 122.586C681.329 124.056 678.926 126.201 676.98 129.021C675.073 131.802 673.782 135.158 673.107 139.091ZM800.382 100.481L797.224 119.548H742.051L745.268 100.481H800.382ZM761.355 78.555H786.737L772.557 163.877C772.16 166.221 772.219 168.048 772.736 169.359C773.252 170.63 774.106 171.523 775.298 172.04C776.529 172.556 777.999 172.814 779.707 172.814C780.898 172.814 782.11 172.715 783.341 172.517C784.573 172.278 785.506 172.099 786.142 171.98L787.095 190.868C785.665 191.305 783.738 191.782 781.315 192.298C778.932 192.814 776.112 193.132 772.855 193.251C766.658 193.49 761.415 192.675 757.125 190.808C752.835 188.902 749.757 185.982 747.89 182.05C746.023 178.117 745.625 173.172 746.698 167.214L761.355 78.555ZM794.951 192L810.205 100.481H835.587L820.334 192H794.951ZM825.517 88.5648C821.744 88.5648 818.626 87.3136 816.163 84.8111C813.74 82.2689 812.747 79.2501 813.184 75.7546C813.621 72.1796 815.329 69.1608 818.308 66.698C821.287 64.1956 824.663 62.9443 828.437 62.9443C832.21 62.9443 835.289 64.1956 837.672 66.698C840.055 69.1608 841.048 72.1796 840.651 75.7546C840.254 79.2501 838.566 82.2689 835.587 84.8111C832.647 87.3136 829.291 88.5648 825.517 88.5648ZM875.424 193.787C866.09 193.787 858.364 191.801 852.247 187.829C846.129 183.817 841.82 178.256 839.317 171.146C836.854 163.996 836.398 155.675 837.947 146.181C839.456 136.807 842.594 128.604 847.361 121.574C852.127 114.543 858.185 109.081 865.533 105.188C872.882 101.256 881.164 99.2897 890.379 99.2897C899.674 99.2897 907.38 101.296 913.497 105.307C919.614 109.28 923.924 114.841 926.427 121.991C928.929 129.14 929.406 137.462 927.857 146.956C926.308 156.29 923.13 164.473 918.324 171.504C913.517 178.534 907.46 184.016 900.151 187.948C892.842 191.841 884.6 193.787 875.424 193.787ZM877.927 174.125C882.217 174.125 886.01 172.914 889.307 170.491C892.643 168.028 895.404 164.691 897.589 160.481C899.813 156.231 901.362 151.424 902.236 146.062C903.11 140.779 903.17 136.092 902.415 132C901.66 127.869 900.071 124.612 897.648 122.229C895.265 119.846 891.988 118.654 887.817 118.654C883.527 118.654 879.714 119.885 876.377 122.348C873.041 124.771 870.28 128.108 868.095 132.358C865.911 136.608 864.382 141.434 863.508 146.836C862.673 152.08 862.614 156.767 863.329 160.898C864.044 164.989 865.613 168.227 868.036 170.61C870.459 172.953 873.756 174.125 877.927 174.125ZM964.462 139.091L955.644 192H930.321L945.574 100.481H969.705L967.083 116.628H968.096C970.996 111.266 975.087 107.035 980.37 103.937C985.693 100.839 991.751 99.2897 998.543 99.2897C1004.9 99.2897 1010.2 100.68 1014.45 103.46C1018.74 106.241 1021.76 110.193 1023.51 115.317C1025.3 120.441 1025.59 126.578 1024.4 133.728L1014.63 192H989.248L998.245 138.257C999.159 132.656 998.444 128.286 996.1 125.148C993.796 121.971 990.082 120.382 984.958 120.382C981.542 120.382 978.404 121.117 975.544 122.586C972.684 124.056 970.281 126.201 968.335 129.021C966.428 131.802 965.137 135.158 964.462 139.091ZM1078.27 69.9751L1061.83 155.416H1040.14L1051.88 69.9751H1078.27ZM1046.16 193.549C1042.14 193.549 1038.85 192.159 1036.27 189.378C1033.72 186.598 1032.57 183.222 1032.81 179.249C1033.09 175.317 1034.74 172 1037.75 169.299C1040.81 166.558 1044.33 165.188 1048.3 165.188C1052.11 165.188 1055.33 166.558 1057.95 169.299C1060.57 172.04 1061.73 175.357 1061.41 179.249C1061.21 181.871 1060.36 184.274 1058.85 186.459C1057.38 188.604 1055.51 190.332 1053.25 191.643C1050.98 192.914 1048.62 193.549 1046.16 193.549Z" fill="white"/>
</g>
</g>
<defs>
<filter id="filter0_d_3411_3314" x="309.836" y="62.9443" width="773.606" height="136.015" filterUnits="userSpaceOnUse" color-interpolation-filters="sRGB">
<feFlood flood-opacity="0" result="BackgroundImageFix"/>
<feColorMatrix in="SourceAlpha" type="matrix" values="0 0 0 0 0 0 0 0 0 0 0 0 0 0 0 0 0 0 127 0" result="hardAlpha"/>
<feOffset dx="5.17172" dy="5.17172"/>
<feComposite in2="hardAlpha" operator="out"/>
<feColorMatrix type="matrix" values="0 0 0 0 0 0 0 0 0 0 0 0 0 0 0 0 0 0 1 0"/>
<feBlend mode="normal" in2="BackgroundImageFix" result="effect1_dropShadow_3411_3314"/>
<feBlend mode="normal" in="SourceGraphic" in2="effect1_dropShadow_3411_3314" result="shape"/>
</filter>
<clipPath id="clip0_3411_3314">
<rect width="1344" height="340" fill="white"/>
</clipPath>
</defs>
</svg>
